symbols/web/home_work/materialsymbolsoutlined/home_work_wght700_48px.svg

<svg xmlns="http://www.w3.org/2000/svg" height="48" width="48"><path d="M35.1 16.85h3v-3h-3Zm0 8.55h3v-3h-3Zm0 8.5h3v-3h-3Zm-2.8 8.65v-4.1h10.4V9.55H24.1v5.25l-4.15-3V5.45h26.9v37.1Zm-31.2 0V22.2l14.15-10.1L29.3 22.2v20.35H17.9V31.4h-5.3v11.15Zm4.15-4.1H9.6V28.4h11.3v10.05h4.25v-14.1l-9.9-7.1-10 7.15Zm27.05-17.9Zm-11.4 17.9V28.4H9.6v10.05V28.4h11.3Z"/></svg>

<svg xmlns="http://www.w3.org/2000/svg" height="48" width="48"><path d="M35.1 16.85H38.1V13.85H35.1ZM35.1 25.4H38.1V22.4H35.1ZM35.1 33.9H38.1V30.9H35.1ZM32.3 42.55V38.45H42.7V9.55H24.1V14.8L19.95 11.8V5.45H46.85V42.55ZM1.1 42.55V22.2L15.25 12.1L29.3 22.2V42.55H17.9V31.4H12.6V42.55ZM5.25 38.45H9.6V28.4H20.9V38.45H25.15V24.35L15.25 17.15L5.25 24.35ZM32.3 20.55ZM20.9 38.45V28.4H9.6V38.45V28.4H15.25H20.9Z"/></svg>
